X:91
T: Kan huagu
N: C0114
O: China, Hubei, Zigui
S: I, 453]
N: Inhaltsstichwort: Lampe am anderen Berg
N: Wenig Verzierungen.
R: Wuge, Dengdiao, Huaguzi]
M: 2/4
L: 1/16
K: Eb
c2c2B2B2 | c2c2G4 | G2c2B2GB | F2GFE2C2
F3GB4 | c2G2G4 | F2B2F2GF | C4C4
E2CEE2C2 | F3GB2B2 | B2G2F2E2 | E4C4
B4c3B | B2G2G4 | B2F2F4 | E2C6
c2c2B4 | c2cBG4 | c2c2B2G2 | F2GFE2C2
F3GB4 | c2cBG4 | B2F2F4 | C8
CECEE3C | F2G2B2B2 | B2G2F2E2 | E2C2C4
B4c2BB | B2G2G2FG | B2F2F4 | E2C6

